src/assets/images/Nascer do Sol.svg

<svg width="25" height="18" viewBox="0 0 25 18" fill="none" xmlns="http://www.w3.org/2000/svg">
<path d="M25 13.0911C25 13.308 24.9122 13.5161 24.7559 13.6696C24.5996 13.823 24.3877 13.9092 24.1667 13.9092H0.833333C0.61232 13.9092 0.400358 13.823 0.244078 13.6696C0.0877973 13.5161 0 13.308 0 13.0911C0 12.8741 0.0877973 12.666 0.244078 12.5125C0.400358 12.3591 0.61232 12.2729 0.833333 12.2729H5.04688C5.01621 12.0012 5.00056 11.7281 5 11.4547C5 9.50183 5.79018 7.62892 7.1967 6.24801C8.60322 4.8671 10.5109 4.09131 12.5 4.09131C14.4891 4.09131 16.3968 4.8671 17.8033 6.24801C19.2098 7.62892 20 9.50183 20 11.4547C19.9994 11.7281 19.9838 12.0012 19.9531 12.2729H24.1667C24.3877 12.2729 24.5996 12.3591 24.7559 12.5125C24.9122 12.666 25 12.8741 25 13.0911ZM20.8333 16.3637H4.16667C3.94565 16.3637 3.73369 16.4499 3.57741 16.6033C3.42113 16.7568 3.33333 16.9649 3.33333 17.1818C3.33333 17.3988 3.42113 17.6069 3.57741 17.7604C3.73369 17.9138 3.94565 18 4.16667 18H20.8333C21.0543 18 21.2663 17.9138 21.4226 17.7604C21.5789 17.6069 21.6667 17.3988 21.6667 17.1818C21.6667 16.9649 21.5789 16.7568 21.4226 16.6033C21.2663 16.4499 21.0543 16.3637 20.8333 16.3637ZM7.5875 2.82112C7.63647 2.91729 7.70426 3.00303 7.78698 3.07347C7.86971 3.14392 7.96576 3.19767 8.06964 3.23167C8.17353 3.26567 8.28322 3.27924 8.39244 3.27162C8.50167 3.264 8.60831 3.23533 8.70625 3.18725C8.80419 3.13917 8.89153 3.07262 8.96328 2.9914C9.03503 2.91018 9.08978 2.81588 9.12441 2.71389C9.15904 2.61189 9.17286 2.5042 9.1651 2.39696C9.15734 2.28972 9.12814 2.18503 9.07917 2.08887L8.24583 0.452557C8.14693 0.258352 7.9735 0.110675 7.76369 0.0420128C7.55389 -0.0266491 7.32489 -0.0106713 7.12708 0.0864312C6.92928 0.183534 6.77886 0.353807 6.70892 0.559793C6.63899 0.765778 6.65526 0.990603 6.75417 1.18481L7.5875 2.82112ZM1.29375 7.27804L2.96042 8.0962C3.15809 8.1933 3.38695 8.20933 3.59666 8.14077C3.80637 8.0722 3.97974 7.92465 4.07865 7.73058C4.17755 7.53651 4.19388 7.31182 4.12404 7.10593C4.0542 6.90004 3.90392 6.72982 3.70625 6.63272L2.03958 5.81456C1.94171 5.76648 1.83514 5.7378 1.72598 5.73015C1.61681 5.7225 1.50718 5.73604 1.40334 5.76999C1.29951 5.80394 1.2035 5.85764 1.1208 5.92802C1.0381 5.9984 0.970326 6.08408 0.921354 6.18017C0.872382 6.27627 0.843167 6.38089 0.835379 6.48807C0.82759 6.59525 0.841379 6.70288 0.875959 6.80483C0.910539 6.90677 0.965233 7.00104 1.03692 7.08223C1.1086 7.16342 1.19587 7.22996 1.29375 7.27804ZM21.6667 8.1821C21.7957 8.18213 21.923 8.15272 22.0385 8.0962L23.7052 7.27804C23.8031 7.22996 23.8904 7.16342 23.962 7.08223C24.0337 7.00104 24.0884 6.90677 24.123 6.80483C24.1576 6.70288 24.1714 6.59525 24.1636 6.48807C24.1558 6.38089 24.1266 6.27627 24.0776 6.18017C24.0286 6.08408 23.9609 5.9984 23.8782 5.92802C23.7955 5.85764 23.6995 5.80394 23.5956 5.76999C23.4918 5.73604 23.3821 5.7225 23.273 5.73015C23.1638 5.7378 23.0573 5.76648 22.9594 5.81456L21.2927 6.63272C21.125 6.71535 20.9906 6.85112 20.9113 7.01807C20.832 7.18501 20.8124 7.37335 20.8556 7.5526C20.8989 7.73184 21.0025 7.89151 21.1497 8.00576C21.2969 8.12 21.479 8.18214 21.6667 8.1821ZM16.2937 3.18725C16.3917 3.2354 16.4983 3.26413 16.6076 3.27178C16.7168 3.27944 16.8265 3.26588 16.9304 3.23187C17.0343 3.19787 17.1304 3.14409 17.2131 3.07361C17.2958 3.00313 17.3636 2.91733 17.4125 2.82112L18.2458 1.18481C18.3447 0.990603 18.361 0.765778 18.2911 0.559793C18.2211 0.353807 18.0707 0.183534 17.8729 0.0864312C17.6751 -0.0106713 17.4461 -0.0266491 17.2363 0.0420128C17.0265 0.110675 16.8531 0.258352 16.7542 0.452557L15.9208 2.08887C15.8718 2.18502 15.8425 2.28972 15.8347 2.39697C15.8269 2.50423 15.8407 2.61195 15.8754 2.71396C15.91 2.81597 15.9648 2.91028 16.0366 2.99149C16.1084 3.0727 16.1958 3.13922 16.2937 3.18725Z" fill="#ED653B"/>
</svg>

<svg xmlns="http://www.w3.org/2000/svg" width="25" height="18" fill="none" viewBox="0 0 25 18"><path fill="#ed653b" d="M25 13.091a.8.8 0 0 1-.244.579.84.84 0 0 1-.59.24H.834a.84.84 0 0 1-.589-.24.81.81 0 0 1 0-1.158.84.84 0 0 1 .59-.24h4.213a7.296 7.296 0 0 1 2.15-6.025A7.57 7.57 0 0 1 12.5 4.092c1.99 0 3.897.776 5.303 2.157a7.3 7.3 0 0 1 2.15 6.025h4.214c.22 0 .433.086.589.24a.8.8 0 0 1 .244.578m-4.167 3.273H4.167a.84.84 0 0 0-.59.24.81.81 0 0 0 0 1.156c.157.154.369.24.59.24h16.666a.84.84 0 0 0 .59-.24.81.81 0 0 0 0-1.157.84.84 0 0 0-.59-.24M7.588 2.82a.82.82 0 0 0 .482.41.85.85 0 0 0 .893-.24.82.82 0 0 0 .202-.594.8.8 0 0 0-.086-.308L8.246.453a.83.83 0 0 0-.482-.411.85.85 0 0 0-.637.044.82.82 0 0 0-.418.474.8.8 0 0 0 .045.625zM1.294 7.278l1.666.818a.85.85 0 0 0 .637.045.83.83 0 0 0 .482-.41.8.8 0 0 0 .045-.625.82.82 0 0 0-.418-.473L2.04 5.815A.845.845 0 0 0 .92 6.18a.807.807 0 0 0 .373 1.098m20.373.904c.129 0 .256-.03.371-.086l1.667-.818a.83.83 0 0 0 .418-.473.8.8 0 0 0-.245-.877.84.84 0 0 0-.605-.198.9.9 0 0 0-.314.085l-1.666.818a.83.83 0 0 0-.382.385.805.805 0 0 0 .239.988c.147.114.329.176.517.176m-5.373-4.995a.846.846 0 0 0 1.119-.366l.833-1.636A.8.8 0 0 0 18.29.56a.82.82 0 0 0-.418-.474.85.85 0 0 0-.637-.044.83.83 0 0 0-.482.41l-.833 1.637a.81.81 0 0 0 .373 1.098"/></svg>
